src/topics/icons/vaadin.svg

<svg height="124" preserveAspectRatio="xMidYMid" viewBox="0 0 512 124" width="512" xmlns="http://www.w3.org/2000/svg"><path d="m290.780729 25.6796444c0 5.3111467-4.146062 7.9917512-7.992889 7.9917512h-.882916c-3.847964 0-7.992888-2.6806045-7.992888-7.9917512v-1.1946666c0-5.3111467 4.146062-7.9928889 7.992888-7.9928889h.882916c3.847964 0 7.992889 2.6806044 7.992889 7.9928889zm-164.124445 53.3230934c4.507876.5791289 6.784569 4.3758933 6.784569 7.9177955 0 3.8479645-2.680604 7.9928889-7.992889 7.9928889h-6.785706c-2.804622 0-5.333902-1.5621689-6.764089-3.8263466-4.471467 2.6532977-9.714347 4.1733688-15.3713779 4.1733688-15.9448178 0-29.4456889-13.3131377-29.4456889-29.4491022 0-16.5455644 12.8944356-30.4651378 29.7858845-30.4651378 16.1063823 0 29.5401243 12.8785067 29.7870223 29.0030934zm-16.411306-13.9946667c0-7.2578844-6.040462-13.17888-13.3757158-13.17888-7.50592 0-13.3757155 6.1872356-13.3757155 13.7671111 0 7.1907556 6.0689066 13.1811556 13.17888 13.1811556 7.6424533-.0011378 13.5725513-6.1292089 13.5725513-13.7693867zm119.864889-13.3563733c-7.256747 0-13.17888 6.0416-13.17888 13.3768533 0 7.5070578 6.186097 13.3757156 13.767111 13.3757156 7.190755 0 13.181155-6.0689067 13.181155-13.17888.001138-7.6435911-6.129209-13.5736889-13.769386-13.5736889zm30.252373 27.2190578c4.511289.5779911 6.785707 4.3747555 6.785707 7.9189333 0 3.8479644-2.680605 7.9928889-7.991751 7.9928889h-6.786845c-2.851271 0-5.422649-1.6167822-6.84032-3.9480889-4.312178 2.5179022-9.309298 3.9799467-14.615893 3.9799467-16.545565 0-30.465138-12.8944356-30.465138-29.7858845 0-16.2542933 13.111751-29.7892978 29.445689-29.7892978 5.229227 0 10.166044 1.2754489 14.481635 3.55328v-15.5352177c0-5.3111467 4.146063-7.1998578 7.992889-7.1998578 3.846827 0 7.992889 1.8875733 7.992889 7.1998578v41.1693511 1.6839111 12.7601778zm-234.9806933 11.78624-16.35555559-38.8767289h-1.024c-5.31797333 0-8.00199111-4.1494756-8.00199111-8.0019911 0-3.8513778 2.68401778-8.0019912 8.00199111-8.0019912h6.33855999c3.3917156 0 6.2816711 2.2004623 7.3875911 4.9277156l12.5292089 32.8328533 12.55424-32.8863289c1.1355022-2.5406577 3.9094045-4.87424 7.3648356-4.87424h6.33856c5.3179733 0 8.0019911 4.1494756 8.0019911 8.0019912 0 3.8525155-2.6840178 8.0019911-8.0019911 8.0019911h-1.024l-16.3544178 38.8767289c-1.1298133 2.6237155-3.1550578 4.8901688-8.8587378 4.8901688-5.7332622 0-7.7630578-2.2596266-8.8962844-4.8901688zm167.4057953-11.6542578c4.507876.5791289 6.784569 4.3758933 6.784569 7.9177955 0 3.8479645-2.680604 7.9928889-7.992889 7.9928889h-6.784569c-2.80576 0-5.333902-1.5621689-6.764089-3.8263466-4.472604 2.6532977-9.714346 4.1733688-15.37024 4.1733688-15.944817 0-29.445688-13.3131377-29.445688-29.4491022 0-16.5455644 12.894435-30.4651378 29.785884-30.4651378 16.106382 0 29.540124 12.8785067 29.785884 29.0030934zm-16.411306-13.9946667c0-7.2578844-6.040463-13.17888-13.376854-13.17888-7.50592 0-13.374578 6.1872356-13.374578 13.7671111 0 7.1907556 6.067769 13.1811556 13.17888 13.1811556 7.642454-.0011378 13.572552-6.1292089 13.572552-13.7693867zm146.648177-2.8239644-.038684 26.0334933c0 5.3111467-3.865031 6.6958222-8.922453 6.6958222-3.847965 0-7.991752-1.3846755-7.991752-6.6958222-.036408-.5154133-.055751-35.1095467-.055751-35.1095467-4.511289-.5768533-6.785706-4.3747555-6.785706-7.9189333 0-3.8479644 2.680604-7.9928889 7.992889-7.9928889h6.785706c2.770489 0 5.286116 1.5291733 6.72768 3.76832 4.619378-3.7637689 11.088782-5.7571555 17.195236-5.7571555 17.07008 0 27.567218 12.5474133 27.616142 28.12928l.012516 15.6398933c4.512426.5779911 6.786844 4.3758933 6.786844 7.9200711 0 3.8479644-2.680604 7.9928889-7.992889 7.9928889h-.882915-5.902792-.884053c-4.301938 0-7.991751-3.6909511-7.991751-7.9928889v-2.1435733l.007964-22.3391289c0-7.0747022-4.627342-12.5212445-12.972942-12.5212445-6.66624 0-12.703289 5.5478045-12.703289 12.2914134zm-33.831822 32.7293155h-5.901653-.884054c-4.301937 0-7.992888-3.6909511-7.992888-7.9928889v-41.8133333c0-5.3122844 4.146062-7.9928889 7.992888-7.9928889h.884054c3.846826 0 7.991751 2.6806045 7.991751 7.9928889v33.8932622c4.512427.5779911 6.785707 4.3758934 6.785707 7.9200711 0 3.8479645-2.679467 7.9928889-7.992889 7.9928889z"/><path d="m507.457991 69.8026667-43.25376 14.60224v.9147733c0 4.7479467-3.704604 7.1429689-7.142969 7.1429689-3.438364 0-7.144106-2.3950222-7.144106-7.1429689v-5.6593067c0-3.0287644 1.964942-5.6092444 4.399786-6.5956977l37.85728-11.1866312-37.905066-11.2082488c-2.268729-1.0148978-4.352-3.4895645-4.352-6.5752178v-5.6581689c0-4.7479467 3.705742-7.1441067 7.144106-7.1441067 3.438365 0 7.142969 2.3950222 7.142969 7.1441067v.9136355l43.25376 14.6011023c2.341547 1.0092089 4.364516 2.8171377 4.364516 7.9086933 0 5.1177244-2.01728 6.9313422-4.364516 7.9428267zm-97.072924 33.6076803v-27.429547c0-12.4814222 9.599431-13.4417067 14.399715-13.8524444-4.801422-.6872178-14.399715-1.6463645-14.399715-14.1255112v-27.4318222c0-5.7594311-2.605511-8.2284089-6.445511-8.2284089h-3.4304c-3.566934 0-6.171307-1.9194311-6.171307-6.17130663 0-3.97653334 2.604373-6.17130667 6.171307-6.17130667h10.150115c11.9296 0 17.830116 5.62289778 17.830116 18.2408533v27.9790934c0 8.3649422 3.56352 9.1898311 6.992782 9.1898311 4.527218 0 6.58432 3.2893155 6.58432 6.5820444 0 3.2915911-2.05824 6.58432-6.58432 6.58432-3.4304 0-6.992782.8226134-6.992782 9.1886934v27.9779554c0 12.619093-5.900516 18.241991-17.830116 18.241991h-10.150115c-3.566934 0-6.171307-2.195911-6.171307-6.172444 0-4.251876 2.604373-6.173582 6.171307-6.173582h3.4304c3.84 0 6.445511-2.46784 6.445511-8.228409z" fill="#00b4f0"/></svg>

<?xml version="1.0" encoding="UTF-8" standalone="no"?>
<svg width="512px" height="124px" viewBox="0 0 512 124" version="1.1" xmlns="http://www.w3.org/2000/svg" xmlns:xlink="http://www.w3.org/1999/xlink" preserveAspectRatio="xMidYMid">
	<g>
		<path d="M290.780729,25.6796444 C290.780729,30.9907911 286.634667,33.6713956 282.78784,33.6713956 L281.904924,33.6713956 C278.05696,33.6713956 273.912036,30.9907911 273.912036,25.6796444 L273.912036,24.4849778 C273.912036,19.1738311 278.058098,16.4920889 281.904924,16.4920889 L282.78784,16.4920889 C286.635804,16.4920889 290.780729,19.1726933 290.780729,24.4849778 L290.780729,25.6796444 L290.780729,25.6796444 Z M126.656284,79.0027378 C131.16416,79.5818667 133.440853,83.3786311 133.440853,86.9205333 C133.440853,90.7684978 130.760249,94.9134222 125.447964,94.9134222 L118.662258,94.9134222 C115.857636,94.9134222 113.328356,93.3512533 111.898169,91.0870756 C107.426702,93.7403733 102.183822,95.2604444 96.5267911,95.2604444 C80.5819733,95.2604444 67.0811022,81.9473067 67.0811022,65.8113422 C67.0811022,49.2657778 79.9755378,35.3462044 96.8669867,35.3462044 C112.973369,35.3462044 126.407111,48.2247111 126.654009,64.3492978 L126.656284,79.0027378 L126.656284,79.0027378 Z M110.244978,65.0080711 C110.244978,57.7501867 104.204516,51.8291911 96.8692622,51.8291911 C89.3633422,51.8291911 83.4935467,58.0164267 83.4935467,65.5963022 C83.4935467,72.7870578 89.5624533,78.7774578 96.6724267,78.7774578 C104.31488,78.77632 110.244978,72.6482489 110.244978,65.0080711 L110.244978,65.0080711 Z M230.109867,51.6516978 C222.85312,51.6516978 216.930987,57.6932978 216.930987,65.0285511 C216.930987,72.5356089 223.117084,78.4042667 230.698098,78.4042667 C237.888853,78.4042667 243.879253,72.33536 243.879253,65.2253867 C243.880391,57.5817956 237.750044,51.6516978 230.109867,51.6516978 L230.109867,51.6516978 Z M260.36224,78.8707556 C264.873529,79.4487467 267.147947,83.2455111 267.147947,86.7896889 C267.147947,90.6376533 264.467342,94.7825778 259.156196,94.7825778 L252.369351,94.7825778 C249.51808,94.7825778 246.946702,93.1657956 245.529031,90.8344889 C241.216853,93.3523911 236.219733,94.8144356 230.913138,94.8144356 C214.367573,94.8144356 200.448,81.92 200.448,65.0285511 C200.448,48.7742578 213.559751,35.2392533 229.893689,35.2392533 C235.122916,35.2392533 240.059733,36.5147022 244.375324,38.7925333 L244.375324,23.2573156 C244.375324,17.9461689 248.521387,16.0574578 252.368213,16.0574578 C256.21504,16.0574578 260.361102,17.9450311 260.361102,23.2573156 L260.361102,64.4266667 L260.361102,66.1105778 L260.361102,78.8707556 L260.36224,78.8707556 Z M25.3815467,90.6569956 L9.02599111,51.7802667 L8.00199111,51.7802667 C2.68401778,51.7802667 0,47.6307911 0,43.7782756 C0,39.9268978 2.68401778,35.7762844 8.00199111,35.7762844 L14.3405511,35.7762844 C17.7322667,35.7762844 20.6222222,37.9767467 21.7281422,40.704 L34.2573511,73.5368533 L46.8115911,40.6505244 C47.9470933,38.1098667 50.7209956,35.7762844 54.1764267,35.7762844 L60.5149867,35.7762844 C65.83296,35.7762844 68.5169778,39.92576 68.5169778,43.7782756 C68.5169778,47.6307911 65.83296,51.7802667 60.5149867,51.7802667 L59.4909867,51.7802667 L43.1365689,90.6569956 C42.0067556,93.2807111 39.9815111,95.5471644 34.2778311,95.5471644 C28.5445689,95.5471644 26.5147733,93.2875378 25.3815467,90.6569956 L25.3815467,90.6569956 Z M192.787342,79.0027378 C197.295218,79.5818667 199.571911,83.3786311 199.571911,86.9205333 C199.571911,90.7684978 196.891307,94.9134222 191.579022,94.9134222 L184.794453,94.9134222 C181.988693,94.9134222 179.460551,93.3512533 178.030364,91.0870756 C173.55776,93.7403733 168.316018,95.2604444 162.660124,95.2604444 C146.715307,95.2604444 133.214436,81.9473067 133.214436,65.8113422 C133.214436,49.2657778 146.108871,35.3462044 163.00032,35.3462044 C179.106702,35.3462044 192.540444,48.2247111 192.786204,64.3492978 L192.787342,79.0027378 L192.787342,79.0027378 Z M176.376036,65.0080711 C176.376036,57.7501867 170.335573,51.8291911 162.999182,51.8291911 C155.493262,51.8291911 149.624604,58.0164267 149.624604,65.5963022 C149.624604,72.7870578 155.692373,78.7774578 162.803484,78.7774578 C170.445938,78.77632 176.376036,72.6482489 176.376036,65.0080711 L176.376036,65.0080711 Z M323.024213,62.1841067 L322.985529,88.2176 C322.985529,93.5287467 319.120498,94.9134222 314.063076,94.9134222 C310.215111,94.9134222 306.071324,93.5287467 306.071324,88.2176 C306.034916,87.7021867 306.015573,53.1080533 306.015573,53.1080533 C301.504284,52.5312 299.229867,48.7332978 299.229867,45.18912 C299.229867,41.3411556 301.910471,37.1962311 307.222756,37.1962311 L314.008462,37.1962311 C316.778951,37.1962311 319.294578,38.7254044 320.736142,40.9645511 C325.35552,37.2007822 331.824924,35.2073956 337.931378,35.2073956 C355.001458,35.2073956 365.498596,47.7548089 365.54752,63.3366756 L365.560036,78.9765689 C370.072462,79.55456 372.34688,83.3524622 372.34688,86.89664 C372.34688,90.7446044 369.666276,94.8895289 364.353991,94.8895289 L363.471076,94.8895289 L357.568284,94.8895289 L356.684231,94.8895289 C352.382293,94.8895289 348.69248,91.1985778 348.69248,86.89664 L348.69248,84.7530667 L348.700444,62.4139378 C348.700444,55.3392356 344.073102,49.8926933 335.727502,49.8926933 C329.061262,49.8926933 323.024213,55.4404978 323.024213,62.1841067 L323.024213,62.1841067 Z M289.192391,94.9134222 L283.290738,94.9134222 L282.406684,94.9134222 C278.104747,94.9134222 274.413796,91.2224711 274.413796,86.9205333 L274.413796,45.1072 C274.413796,39.7949156 278.559858,37.1143111 282.406684,37.1143111 L283.290738,37.1143111 C287.137564,37.1143111 291.282489,39.7949156 291.282489,45.1072 L291.282489,79.0004622 C295.794916,79.5784533 298.068196,83.3763556 298.068196,86.9205333 C298.068196,90.7684978 295.388729,94.9134222 290.075307,94.9134222 L289.192391,94.9134222 L289.192391,94.9134222 Z" fill="#000000"></path>
		<path d="M507.457991,69.8026667 L464.204231,84.4049067 L464.204231,85.31968 C464.204231,90.0676267 460.499627,92.4626489 457.061262,92.4626489 C453.622898,92.4626489 449.917156,90.0676267 449.917156,85.31968 L449.917156,79.6603733 C449.917156,76.6316089 451.882098,74.0511289 454.316942,73.0646756 L492.174222,61.8780444 L454.269156,50.6697956 C452.000427,49.6548978 449.917156,47.1802311 449.917156,44.0945778 L449.917156,38.4364089 C449.917156,33.6884622 453.622898,31.2923022 457.061262,31.2923022 C460.499627,31.2923022 464.204231,33.6873244 464.204231,38.4364089 L464.204231,39.3500444 L507.457991,53.9511467 C509.799538,54.9603556 511.822507,56.7682844 511.822507,61.85984 C511.822507,66.9775644 509.805227,68.7911822 507.457991,69.8026667 L507.457991,69.8026667 Z M410.385067,103.410347 L410.385067,75.9808 C410.385067,63.4993778 419.984498,62.5390933 424.784782,62.1283556 C419.98336,61.4411378 410.385067,60.4819911 410.385067,48.0028444 L410.385067,20.5710222 C410.385067,14.8115911 407.779556,12.3426133 403.939556,12.3426133 L400.509156,12.3426133 C396.942222,12.3426133 394.337849,10.4231822 394.337849,6.17130667 C394.337849,2.19477333 396.942222,8.08439735e-15 400.509156,8.08439735e-15 L410.659271,8.08439735e-15 C422.588871,8.08439735e-15 428.489387,5.62289778 428.489387,18.2408533 L428.489387,46.2199467 C428.489387,54.5848889 432.052907,55.4097778 435.482169,55.4097778 C440.009387,55.4097778 442.066489,58.6990933 442.066489,61.9918222 C442.066489,65.2834133 440.008249,68.5761422 435.482169,68.5761422 C432.051769,68.5761422 428.489387,69.3987556 428.489387,77.7648356 L428.489387,105.742791 C428.489387,118.361884 422.588871,123.984782 410.659271,123.984782 L400.509156,123.984782 C396.942222,123.984782 394.337849,121.788871 394.337849,117.812338 C394.337849,113.560462 396.942222,111.638756 400.509156,111.638756 L403.939556,111.638756 C407.779556,111.638756 410.385067,109.170916 410.385067,103.410347 L410.385067,103.410347 Z" fill="#00B4F0"></path>
	</g>
</svg>
